;FLAVOR:RepRap
;TIME:4499
;Generated with Cura_SteamEngine 2.3.1
M190 S50
M104 S210
M109 S210
G28 ;Home
G1 Z15.0 F6000 ;Move the platform down 15mm
;Prime the extruder
G92 E0
G1 F200 E3
G92 E0
;LAYER_COUNT:18
;LAYER:0
M107
G1 F2700 E-6.5
G0 F3000 X83.639 Y54.295 Z.2
;TYPE:SKIRT
G1 F2700 E0
G1 F1800 X84.73 Y52.598 E0.0671
G1 X84.883 Y52.381 E0.07593
G1 X86.651 Y50.076 E0.17255
G1 X86.866 Y49.824 E0.18357
G1 X89.382 Y47.166 E0.3053
G1 X89.557 Y46.995 E0.31344
G1 X91.057 Y45.636 E0.38076
G1 X91.297 Y45.439 E0.39109
G1 X94.219 Y43.267 E0.51218
G1 X94.423 Y43.127 E0.52041
G1 X96.169 Y42.028 E0.58903
G1 X96.393 Y41.899 E0.59763
G1 X98.91 Y40.585 E0.69206
G1 X99.211 Y40.447 E0.70308
G1 X102.592 Y39.106 E0.82405
G1 X102.823 Y39.025 E0.83219
G1 X104.788 Y38.415 E0.90062
G1 X105.039 Y38.348 E0.90927
G1 X107.835 Y37.723 E1.00456
G1 X108.113 Y37.674 E1.01394
G1 X110.941 Y37.3 E1.10882
G1 X111.27 Y37.273 E1.1198
G1 X114.911 Y37.169 E1.24095
G1 X115.156 Y37.172 E1.2491
G1 X117.208 Y37.271 E1.31743
G1 X117.516 Y37.301 E1.32772
G1 X121.088 Y37.822 E1.44779
G1 X121.333 Y37.867 E1.45607
G1 X123.372 Y38.329 E1.52561
G1 X123.673 Y38.413 E1.536
G1 X127.165 Y39.572 E1.65838
G1 X127.396 Y39.659 E1.66659
G1 X129.275 Y40.448 E1.73437
G1 X129.557 Y40.583 E1.74477
G1 X132.799 Y42.335 E1.86733
G1 X133.009 Y42.459 E1.87544
G1 X134.7 Y43.547 E1.94232
G1 X134.954 Y43.728 E1.9527
G1 X137.807 Y45.984 E2.07367
G1 X137.995 Y46.145 E2.0819
G1 X139.52 Y47.556 E2.15101
G1 X139.738 Y47.778 E2.16135
G1 X142.16 Y50.5 E2.28254
G1 X142.317 Y50.691 E2.29076
G1 X143.557 Y52.323 E2.35893
G1 X143.734 Y52.581 E2.36934
G1 X145.671 Y55.727 E2.49222
G1 X145.818 Y55.994 E2.50236
G1 X147.047 Y58.495 E2.59504
G1 X147.136 Y58.693 E2.60226
G1 X147.928 Y60.627 E2.67177
G1 X148.033 Y60.924 E2.68225
G1 X149.077 Y64.418 E2.80354
G1 X149.151 Y64.716 E2.81375
G1 X149.705 Y67.532 E2.9092
G1 X149.74 Y67.747 E2.91645
G1 X149.996 Y69.763 E2.98404
G1 X150.02 Y70.076 E2.99448
G1 X150.124 Y73.756 E3.11693
G1 X150.121 Y74.002 E3.12511
G1 X150.021 Y76.046 E3.19317
G1 X149.991 Y76.357 E3.20357
G1 X149.458 Y79.973 E3.32513
G1 X149.413 Y80.215 E3.33332
G1 X148.962 Y82.201 E3.40106
G1 X148.883 Y82.485 E3.41086
G1 X147.298 Y87.338 E3.58066
G1 X145.713 Y92.628 E3.76434
G1 X144.439 Y97.956 E3.94654
G1 X143.471 Y103.337 E4.12839
G1 X142.807 Y108.772 E4.3105
G1 X142.452 Y114.232 E4.49249
G1 X142.407 Y119.721 E4.67506
G1 X142.67 Y125.185 E4.857
G1 X143.243 Y130.628 E5.03904
G1 X144.124 Y136.041 E5.22144
G1 X144.673 Y138.699 E5.31171
G1 X145.651 Y142.817 E5.45249
G1 X145.678 Y142.94 E5.45668
G1 X146.229 Y145.742 E5.55166
G1 X146.264 Y145.956 E5.55887
G1 X146.52 Y147.972 E5.62646
G1 X146.544 Y148.285 E5.6369
G1 X146.648 Y151.965 E5.75935
G1 X146.645 Y152.211 E5.76753
G1 X146.545 Y154.255 E5.8356
G1 X146.515 Y154.561 E5.84582
G1 X145.997 Y158.111 E5.96515
G1 X145.952 Y158.356 E5.97343
G1 X145.49 Y160.394 E6.04293
G1 X145.406 Y160.697 E6.05339
G1 X144.235 Y164.219 E6.17684
G1 X144.148 Y164.449 E6.18502
G1 X143.37 Y166.3 E6.2518
G1 X143.235 Y166.581 E6.26217
G1 X141.483 Y169.823 E6.38474
G1 X141.358 Y170.034 E6.39289
G1 X140.264 Y171.733 E6.4601
G1 X140.084 Y171.986 E6.47043
G1 X137.83 Y174.836 E6.59128
G1 X137.669 Y175.024 E6.59952
G1 X136.261 Y176.546 E6.66848
G1 X136.04 Y176.763 E6.67878
G1 X133.329 Y179.176 E6.79949
G1 X133.137 Y179.334 E6.80776
G1 X131.486 Y180.588 E6.87672
G1 X131.229 Y180.764 E6.88708
G1 X128.131 Y182.674 E7.00813
G1 X127.865 Y182.821 E7.01824
G1 X125.326 Y184.07 E7.11235
G1 X125.125 Y184.16 E7.11967
G1 X123.188 Y184.953 E7.18929
G1 X122.894 Y185.058 E7.19967
G1 X119.444 Y186.091 E7.31945
G1 X119.146 Y186.164 E7.32966
G1 X116.288 Y186.728 E7.42655
G1 X116.071 Y186.764 E7.43386
G1 X114.037 Y187.022 E7.50206
G1 X113.724 Y187.046 E7.5125
G1 X110.07 Y187.149 E7.63408
G1 X109.823 Y187.146 E7.64229
G1 X107.771 Y187.045 E7.71063
G1 X107.466 Y187.015 E7.72082
G1 X103.918 Y186.497 E7.84008
G1 X103.673 Y186.452 E7.84836
G1 X101.63 Y185.989 E7.91804
G1 X101.329 Y185.905 E7.92843
G1 X97.84 Y184.747 E8.0507
G1 X97.607 Y184.66 E8.05897
G1 X95.722 Y183.867 E8.12699
G1 X95.442 Y183.733 E8.13731
G1 X92.215 Y181.99 E8.2593
G1 X92.005 Y181.866 E8.26741
G1 X90.308 Y180.775 E8.33451
G1 X90.055 Y180.594 E8.34486
G1 X87.217 Y178.352 E8.46515
G1 X87.029 Y178.191 E8.47338
G1 X85.493 Y176.771 E8.54296
G1 X85.275 Y176.549 E8.55331
G1 X82.855 Y173.831 E8.67435
G1 X82.697 Y173.639 E8.68262
G1 X81.44 Y171.985 E8.75171
G1 X81.265 Y171.73 E8.762
G1 X79.365 Y168.653 E8.88228
G1 X79.215 Y168.38 E8.89264
G1 X77.927 Y165.752 E8.98998
G1 X77.838 Y165.555 E8.99717
G1 X77.073 Y163.684 E9.0644
G1 X76.969 Y163.388 E9.07484
G1 X75.928 Y159.9 E9.19591
G1 X75.855 Y159.606 E9.20598
G1 X75.306 Y156.829 E9.30013
G1 X75.271 Y156.612 E9.30744
G1 X75.009 Y154.551 E9.37654
G1 X74.984 Y154.239 E9.38695
G1 X74.879 Y150.594 E9.50824
G1 X74.882 Y150.348 E9.51642
G1 X74.981 Y148.297 E9.58472
G1 X75.01 Y147.989 E9.59501
G1 X75.531 Y144.416 E9.7151
G1 X75.577 Y144.171 E9.72339
G1 X76.039 Y142.132 E9.79293
G1 X76.118 Y141.846 E9.8028
G1 X77.71 Y136.968 E9.97346
G1 X79.297 Y131.675 E10.15725
G1 X80.567 Y126.355 E10.33917
G1 X81.536 Y120.969 E10.52118
G1 X82.199 Y115.533 E10.70332
G1 X82.553 Y110.075 E10.88524
G1 X82.598 Y104.586 E11.06781
G1 X82.334 Y99.122 E11.24975
G1 X81.76 Y93.679 E11.43179
G1 X80.88 Y88.27 E11.61406
G1 X80.326 Y85.593 E11.70499
G1 X79.354 Y81.499 E11.84494
G1 X79.328 Y81.381 E11.84896
G1 X78.781 Y78.616 E11.9427
G1 X78.745 Y78.398 E11.95005
G1 X78.484 Y76.341 E12.01902
G1 X78.46 Y76.03 E12.02939
G1 X78.355 Y72.385 E12.15068
G1 X78.358 Y72.139 E12.15886
G1 X78.457 Y70.088 E12.22715
G1 X78.486 Y69.78 E12.23744
G1 X79.007 Y66.207 E12.35754
G1 X79.053 Y65.962 E12.36583
G1 X79.515 Y63.923 E12.43537
G1 X79.599 Y63.622 E12.44576
G1 X80.758 Y60.13 E12.56814
G1 X80.845 Y59.897 E12.57641
G1 X81.637 Y58.014 E12.64435
G1 X81.771 Y57.734 E12.65468
G1 X83.515 Y54.505 E12.77674
G1 X83.639 Y54.295 E12.78485
G1 F2700 E6.28485
G0 F3000 X86.424 Y56.996
;TYPE:WALL-INNER
G1 F2700 E12.78485
G1 F1800 X87.923 Y54.641 E12.8777
G1 X89.643 Y52.401 E12.97163
G1 X91.528 Y50.342 E13.06448
G1 X93.592 Y48.452 E13.15756
G1 X95.819 Y46.744 E13.2509
G1 X98.183 Y45.237 E13.34415
G1 X100.659 Y43.949 E13.43698
G1 X103.268 Y42.869 E13.53089
G1 X105.921 Y42.032 E13.62342
G1 X108.666 Y41.423 E13.71694
G1 X111.435 Y41.058 E13.80983
G1 X114.24 Y40.936 E13.90322
G1 X117.045 Y41.058 E13.9966
G1 X119.815 Y41.423 E14.08953
G1 X122.56 Y42.032 E14.18304
G1 X125.213 Y42.869 E14.27557
G1 X127.822 Y43.949 E14.36949
G1 X130.298 Y45.237 E14.46232
G1 X132.662 Y46.744 E14.55556
G1 X134.889 Y48.452 E14.64891
G1 X136.952 Y50.342 E14.74196
G1 X138.838 Y52.401 E14.83483
G1 X140.558 Y54.641 E14.92877
G1 X142.057 Y56.996 E15.02162
G1 X143.345 Y59.473 E15.11447
G1 X144.427 Y62.082 E15.20842
G1 X145.263 Y64.733 E15.30087
G1 X145.872 Y67.48 E15.39445
G1 X146.236 Y70.247 E15.48728
G1 X146.359 Y73.055 E15.58076
G1 X146.236 Y75.86 E15.67414
G1 X145.872 Y78.631 E15.7671
G1 X145.264 Y81.372 E15.86048
G1 X144.427 Y84.028 E15.9531
G1 X143.345 Y86.637 E16.04705
G1 X142.057 Y89.114 E16.1399
G1 X140.558 Y91.468 E16.23272
G1 X138.838 Y93.709 E16.32668
G1 X136.952 Y95.767 E16.41953
G1 X134.889 Y97.658 E16.51261
G1 X132.662 Y99.365 E16.60593
G1 X130.3 Y100.871 E16.6991
G1 X127.822 Y102.16 E16.79201
G1 X125.213 Y103.242 E16.88595
G1 X122.56 Y104.078 E16.97847
G1 X119.815 Y104.687 E17.07198
G1 X117.045 Y105.051 E17.16491
G1 X114.24 Y105.174 E17.25829
G1 X111.435 Y105.051 E17.35168
G1 X108.666 Y104.687 E17.44457
G1 X105.921 Y104.078 E17.53808
G1 X103.268 Y103.242 E17.6306
G1 X100.659 Y102.16 E17.72454
G1 X98.181 Y100.871 E17.81745
G1 X95.819 Y99.365 E17.91062
G1 X93.592 Y97.658 E18.00394
G1 X91.528 Y95.767 E18.09705
G1 X89.643 Y93.709 E18.18987
G1 X87.923 Y91.468 E18.28383
G1 X86.424 Y89.114 E18.37665
G1 X85.136 Y86.637 E18.46951
G1 X84.054 Y84.028 E18.56345
G1 X83.217 Y81.372 E18.65607
G1 X82.609 Y78.63 E18.74948
G1 X82.244 Y75.86 E18.84241
G1 X82.122 Y73.055 E18.93579
G1 X82.244 Y70.247 E19.02928
G1 X82.609 Y67.48 E19.12211
G1 X83.218 Y64.733 E19.21569
G1 X84.054 Y62.082 E19.30814
G1 X85.136 Y59.473 E19.40208
G1 X86.424 Y56.996 E19.49494
G1 F2700 E12.99494
G0 F3000 X91.57 Y61.162
G1 F2700 E19.49494
G1 F1800 X90.488 Y63.503 E19.58072
G1 X89.649 Y65.94 E19.66644
G1 X89.058 Y68.45 E19.75221
G1 X88.666 Y71.43 E19.85218
G1 X88.637 Y71.655 E19.85972
G1 X88.863 Y71.655 E19.86441
G1 X88.864 Y71.655 E19.86445
G1 X103.886 Y71.655 E20.36408
G1 X104.415 Y69.653 E20.43295
G1 X105.04 Y68.21 E20.48525
G1 X105.866 Y66.892 E20.53699
G1 X106.889 Y65.702 E20.58918
G1 X108.073 Y64.683 E20.64114
G1 X109.399 Y63.853 E20.69317
G1 X110.841 Y63.228 E20.74544
G1 X112.84 Y62.7 E20.81421
G1 X112.84 Y47.678 E21.31384
G1 X112.84 Y47.677 E21.31388
G1 X112.84 Y47.451 E21.32139
G1 X112.615 Y47.48 E21.3261
G1 X109.636 Y47.871 E21.42603
G1 X107.127 Y48.463 E21.51177
G1 X104.689 Y49.302 E21.59753
G1 X102.348 Y50.384 E21.68331
G1 X100.128 Y51.696 E21.76907
G1 X98.051 Y53.224 E21.85483
G1 X96.138 Y54.952 E21.94058
G1 X94.41 Y56.865 E22.02632
G1 X92.882 Y58.942 E22.11208
G1 X91.57 Y61.162 E22.19785
G1 F2700 E15.69785
G0 F3000 X88.637 Y74.455
G1 F2700 E22.19785
G1 F1800 X88.666 Y74.68 E22.20539
G1 X89.058 Y77.659 E22.30533
G1 X89.649 Y80.169 E22.39109
G1 X90.488 Y82.607 E22.47685
G1 X91.57 Y84.947 E22.5626
G1 X92.882 Y87.167 E22.64836
G1 X94.41 Y89.245 E22.73415
G1 X96.138 Y91.157 E22.81987
G1 X98.051 Y92.886 E22.90563
G1 X100.128 Y94.414 E22.99139
G1 X102.348 Y95.726 E23.07716
G1 X104.689 Y96.807 E23.16293
G1 X107.127 Y97.647 E23.24869
G1 X109.636 Y98.238 E23.33442
G1 X112.615 Y98.63 E23.43436
G1 X112.84 Y98.659 E23.44191
G1 X112.84 Y98.433 E23.4466
G1 X112.84 Y98.432 E23.44663
G1 X112.84 Y83.409 E23.9463
G1 X110.841 Y82.882 E24.01505
G1 X109.394 Y82.255 E24.06751
G1 X108.078 Y81.43 E24.11917
G1 X106.889 Y80.407 E24.17134
G1 X105.87 Y79.223 E24.22329
G1 X105.037 Y77.894 E24.27546
G1 X104.415 Y76.455 E24.3276
G1 X103.886 Y74.455 E24.39641
G1 X88.864 Y74.455 E24.89604
G1 X88.863 Y74.455 E24.89608
G1 X88.637 Y74.455 E24.90077
G1 F2700 E18.40077
G0 F3000 X105.653 Y73.319
G1 F2700 E24.90077
G1 F1800 X105.784 Y73.829 E24.91828
G1 X106.038 Y74.291 E24.93581
G1 X106.399 Y74.677 E24.95339
G1 X106.844 Y74.959 E24.97091
G1 X107.346 Y75.122 E24.98847
G1 X107.873 Y75.155 E25.00603
G1 X108.391 Y75.056 E25.02357
G1 X108.869 Y74.831 E25.04114
G1 X109.275 Y74.496 E25.05865
G1 X109.585 Y74.068 E25.07623
G1 X109.779 Y73.579 E25.09373
G1 X109.846 Y73.055 E25.1113
G1 X109.779 Y72.532 E25.12883
G1 X109.585 Y72.041 E25.14639
G1 X109.275 Y71.614 E25.16394
G1 X108.869 Y71.278 E25.18147
G1 X108.39 Y71.052 E25.19909
G1 X107.873 Y70.955 E25.21658
G1 X107.346 Y70.987 E25.23414
G1 X106.844 Y71.151 E25.25171
G1 X106.401 Y71.433 E25.26917
G1 X106.038 Y71.816 E25.28672
G1 X105.783 Y72.281 E25.30436
G1 X105.653 Y72.792 E25.3219
G1 X105.653 Y73.319 E25.33943
G1 F2700 E18.83943
G0 F3000 X111.656 Y73.38
G1 F2700 E25.33943
G1 F1800 X111.818 Y74.013 E25.36116
G1 X112.133 Y74.585 E25.38288
G1 X112.579 Y75.062 E25.4046
G1 X113.13 Y75.411 E25.42629
G1 X113.751 Y75.613 E25.44801
G1 X114.404 Y75.654 E25.46977
G1 X115.045 Y75.532 E25.49148
G1 X115.636 Y75.253 E25.51321
G1 X116.139 Y74.838 E25.5349
G1 X116.524 Y74.309 E25.55666
G1 X116.762 Y73.702 E25.57835
G1 X116.845 Y73.055 E25.60004
G1 X116.762 Y72.407 E25.62177
G1 X116.523 Y71.8 E25.64347
G1 X116.139 Y71.272 E25.66519
G1 X115.636 Y70.856 E25.6869
G1 X115.044 Y70.578 E25.70865
G1 X114.405 Y70.456 E25.73029
G1 X113.752 Y70.496 E25.75205
G1 X113.13 Y70.698 E25.7738
G1 X112.579 Y71.048 E25.79551
G1 X112.133 Y71.523 E25.81718
G1 X111.818 Y72.097 E25.83896
G1 X111.656 Y72.729 E25.86066
G1 X111.656 Y73.38 E25.88231
G1 F2700 E19.38231
G0 F3000 X113.343 Y68.459
G1 F2700 E25.88231
G1 F1800 X113.845 Y68.622 E25.89986
G1 X114.372 Y68.655 E25.91743
G1 X114.89 Y68.556 E25.93497
G1 X115.368 Y68.331 E25.95254
G1 X115.774 Y67.996 E25.97004
G1 X116.084 Y67.568 E25.98762
G1 X116.278 Y67.079 E26.00512
G1 X116.345 Y66.555 E26.02269
G1 X116.278 Y66.032 E26.04023
G1 X116.084 Y65.541 E26.05779
G1 X115.774 Y65.114 E26.07534
G1 X115.368 Y64.778 E26.09286
G1 X114.889 Y64.552 E26.11048
G1 X114.372 Y64.455 E26.12798
G1 X113.845 Y64.487 E26.14554
G1 X113.343 Y64.651 E26.1631
G1 X112.9 Y64.933 E26.18057
G1 X112.537 Y65.316 E26.19812
G1 X112.282 Y65.781 E26.21576
G1 X112.152 Y66.292 E26.23329
G1 X112.152 Y66.819 E26.25082
G1 X112.283 Y67.329 E26.26834
G1 X112.537 Y67.791 E26.28587
G1 X112.898 Y68.177 E26.30345
G1 X113.343 Y68.459 E26.32097
G1 F2700 E19.82097
G0 F3000 X119.037 Y71.816
G1 F2700 E26.32097
G1 F1800 X118.782 Y72.281 E26.33861
G1 X118.652 Y72.792 E26.35615
G1 X118.652 Y73.319 E26.37368
G1 X118.783 Y73.829 E26.39119
G1 X119.037 Y74.291 E26.40872
G1 X119.398 Y74.677 E26.4263
G1 X119.843 Y74.959 E26.44383
G1 X120.345 Y75.122 E26.46138
G1 X120.872 Y75.155 E26.47894
G1 X121.39 Y75.056 E26.49648
G1 X121.868 Y74.831 E26.51405
G1 X122.274 Y74.496 E26.53156
G1 X122.584 Y74.068 E26.54914
G1 X122.778 Y73.579 E26.56664
G1 X122.845 Y73.055 E26.58421
G1 X122.778 Y72.532 E26.60174
G1 X122.584 Y72.041 E26.6193
G1 X122.274 Y71.614 E26.63685
G1 X121.868 Y71.278 E26.65438
G1 X121.389 Y71.052 E26.672
G1 X120.872 Y70.955 E26.68949
G1 X120.345 Y70.987 E26.70705
G1 X119.843 Y71.151 E26.72462
G1 X119.4 Y71.433 E26.74208
G1 X119.037 Y71.816 E26.75963
G1 F2700 E20.25963
G0 F3000 X115.368 Y77.778
G1 F2700 E26.75963
G1 F1800 X114.889 Y77.552 E26.77725
G1 X114.372 Y77.455 E26.79475
G1 X113.845 Y77.487 E26.81231
G1 X113.343 Y77.651 E26.82987
G1 X112.9 Y77.933 E26.84734
G1 X112.537 Y78.316 E26.86489
G1 X112.282 Y78.781 E26.88253
G1 X112.152 Y79.292 E26.90007
G1 X112.152 Y79.819 E26.91759
G1 X112.283 Y80.329 E26.93511
G1 X112.537 Y80.791 E26.95264
G1 X112.898 Y81.177 E26.97022
G1 X113.343 Y81.459 E26.98774
G1 X113.845 Y81.622 E27.0053
G1 X114.372 Y81.655 E27.02286
G1 X114.89 Y81.556 E27.0404
G1 X115.368 Y81.331 E27.05797
G1 X115.774 Y80.996 E27.07548
G1 X116.084 Y80.568 E27.09306
G1 X116.278 Y80.079 E27.11055
G1 X116.345 Y79.555 E27.12812
G1 X116.278 Y79.032 E27.14566
G1 X116.084 Y78.541 E27.16322
G1 X115.774 Y78.114 E27.18077
G1 X115.368 Y77.778 E27.1983
G1 F2700 E20.6983
G0 F3000 X115.64 Y83.409
G1 F2700 E27.1983
G1 F1800 X115.64 Y98.432 E27.69797
G1 X115.64 Y98.433 E27.698
G1 X115.64 Y98.659 E27.70552
G1 X115.865 Y98.63 E27.71022
G1 X118.844 Y98.238 E27.81016
G1 X121.354 Y97.647 E27.89592
G1 X123.792 Y96.807 E27.98169
G1 X126.133 Y95.726 E28.06745
G1 X128.353 Y94.414 E28.15322
G1 X130.43 Y92.886 E28.23898
G1 X132.343 Y91.157 E28.32475
G1 X134.071 Y89.245 E28.41046
G1 X135.599 Y87.167 E28.49625
G1 X136.911 Y84.947 E28.58202
G1 X137.993 Y82.607 E28.66777
G1 X138.832 Y80.169 E28.75352
G1 X139.423 Y77.659 E28.83929
G1 X139.815 Y74.68 E28.93922
G1 X139.844 Y74.455 E28.94677
G1 X139.618 Y74.455 E28.95146
G1 X139.617 Y74.455 E28.95149
G1 X124.595 Y74.455 E29.45113
G1 X124.066 Y76.455 E29.51993
G1 X123.444 Y77.894 E29.57207
G1 X122.611 Y79.223 E29.62424
G1 X121.592 Y80.407 E29.6762
G1 X120.403 Y81.43 E29.72837
G1 X119.085 Y82.256 E29.7801
G1 X117.642 Y82.881 E29.83241
G1 X115.64 Y83.409 E29.90127
G1 F2700 E23.40127
G0 F3000 X124.595 Y71.655
G1 F2700 E29.90127
G1 F1800 X139.617 Y71.655 E30.4009
G1 X139.618 Y71.655 E30.40094
G1 X139.844 Y71.655 E30.40845
G1 X139.815 Y71.43 E30.41316
G1 X139.423 Y68.45 E30.51313
G1 X138.832 Y65.94 E30.59889
G1 X137.993 Y63.503 E30.68462
G1 X136.911 Y61.162 E30.7704
G1 X135.599 Y58.942 E30.85616
G1 X134.071 Y56.865 E30.94193
G1 X132.343 Y54.952 E31.02767
G1 X130.43 Y53.224 E31.11341
G1 X128.353 Y51.696 E31.19917
G1 X126.133 Y50.384 E31.28494
G1 X123.792 Y49.302 E31.37071
G1 X121.354 Y48.463 E31.45647
G1 X118.844 Y47.871 E31.54224
G1 X115.865 Y47.48 E31.64217
G1 X115.64 Y47.451 E31.64972
G1 X115.64 Y47.677 E31.65441
G1 X115.64 Y47.678 E31.65444
G1 X115.64 Y62.7 E32.15408
G1 X117.642 Y63.229 E32.22295
G1 X119.08 Y63.851 E32.27506
G1 X120.408 Y64.683 E32.32718
G1 X121.592 Y65.702 E32.37914
G1 X122.615 Y66.892 E32.43133
G1 X123.441 Y68.21 E32.48307
G1 X124.066 Y69.653 E32.53537
G1 X124.595 Y71.655 E32.60424
