;FLAVOR:RepRap
;TIME:4493
;Generated with Cura_SteamEngine 2.3.1
M190 S50
M104 S210
M109 S210
G28 ;Home
G1 Z15.0 F6000 ;Move the platform down 15mm
;Prime the extruder
G92 E0
G1 F200 E3
G92 E0
;LAYER_COUNT:18
;LAYER:0
M107
G1 F2700 E-6.5
G0 F3000 X80.799 Y52.092 Z.2
;TYPE:SKIRT
G1 F2700 E0
G1 F1800 X80.981 Y51.836 E0.01045
G1 X83.273 Y48.939 E0.13331
G1 X83.475 Y48.707 E0.14354
G1 X85.426 Y46.676 E0.23721
G1 X85.582 Y46.525 E0.24443
G1 X87.107 Y45.139 E0.31297
G1 X87.346 Y44.942 E0.32327
G1 X90.241 Y42.783 E0.44339
G1 X90.445 Y42.642 E0.45164
G1 X92.193 Y41.538 E0.5204
G1 X92.416 Y41.41 E0.52895
G1 X94.953 Y40.08 E0.62423
G1 X95.196 Y39.965 E0.63317
G1 X97.177 Y39.13 E0.70467
G1 X97.404 Y39.045 E0.71273
G1 X100.615 Y37.97 E0.82536
G1 X100.916 Y37.885 E0.83576
G1 X103.716 Y37.243 E0.93131
G1 X103.983 Y37.194 E0.94033
G1 X106.365 Y36.857 E1.02035
G1 X106.632 Y36.83 E1.02927
G1 X110.191 Y36.628 E1.14784
G1 X110.56 Y36.629 E1.16011
G1 X114.047 Y36.834 E1.27629
G1 X114.287 Y36.857 E1.28431
G1 X116.316 Y37.131 E1.35241
G1 X116.628 Y37.189 E1.36296
G1 X120.364 Y38.077 E1.49068
G1 X120.605 Y38.144 E1.499
G1 X122.487 Y38.75 E1.56476
G1 X122.779 Y38.86 E1.57514
G1 X126.152 Y40.322 E1.69741
G1 X126.374 Y40.429 E1.70561
G1 X128.181 Y41.384 E1.77359
G1 X128.449 Y41.543 E1.78395
G1 X131.505 Y43.561 E1.90576
G1 X131.704 Y43.703 E1.91389
G1 X133.309 Y44.949 E1.98147
G1 X133.547 Y45.153 E1.99189
G1 X136.198 Y47.663 E2.11332
G1 X136.37 Y47.839 E2.1215
G1 X137.745 Y49.357 E2.18962
G1 X137.941 Y49.596 E2.1999
G1 X140.109 Y52.513 E2.32079
G1 X140.249 Y52.716 E2.32899
G1 X141.34 Y54.448 E2.39707
G1 X141.493 Y54.72 E2.40745
G1 X143.135 Y57.995 E2.5293
G1 X143.236 Y58.219 E2.53747
G1 X144.013 Y60.121 E2.60581
G1 X144.118 Y60.419 E2.61632
G1 X145.172 Y63.963 E2.7393
G1 X145.245 Y64.259 E2.74944
G1 X145.785 Y67.012 E2.84275
G1 X145.82 Y67.226 E2.84996
G1 X146.075 Y69.241 E2.91751
G1 X146.099 Y69.549 E2.92779
G1 X146.206 Y73.188 E3.04887
G1 X146.203 Y73.436 E3.05712
G1 X146.104 Y75.495 E3.12568
G1 X146.074 Y75.806 E3.13608
G1 X145.541 Y79.434 E3.25804
G1 X145.496 Y79.675 E3.26619
G1 X145.046 Y81.664 E3.33402
G1 X145.004 Y81.828 E3.33965
G1 X144.244 Y84.516 E3.43256
G1 X142.967 Y89.899 E3.61657
G1 X142.009 Y95.272 E3.79809
G1 X141.354 Y100.704 E3.98007
G1 X141.006 Y106.183 E4.16267
G1 X140.97 Y111.652 E4.34457
G1 X141.243 Y117.119 E4.52663
G1 X141.823 Y122.557 E4.70853
G1 X142.716 Y127.989 E4.89162
G1 X143.269 Y130.644 E4.98182
G1 X143.896 Y133.28 E5.07194
G1 X145.422 Y138.665 E5.2581
G1 X146.509 Y142.333 E5.38534
G1 X146.58 Y142.621 E5.39521
G1 X147.127 Y145.386 E5.48895
G1 X147.162 Y145.604 E5.4963
G1 X147.423 Y147.659 E5.5652
G1 X147.448 Y147.97 E5.57557
G1 X147.553 Y151.617 E5.69692
G1 X147.55 Y151.863 E5.70511
G1 X147.451 Y153.914 E5.7734
G1 X147.422 Y154.222 E5.78369
G1 X146.901 Y157.795 E5.90379
G1 X146.855 Y158.04 E5.91208
G1 X146.393 Y160.079 E5.98161
G1 X146.309 Y160.38 E5.99201
G1 X145.15 Y163.872 E6.11438
G1 X145.063 Y164.103 E6.12259
G1 X144.274 Y165.982 E6.19037
G1 X144.14 Y166.263 E6.20073
G1 X142.4 Y169.486 E6.32255
G1 X142.275 Y169.698 E6.33074
G1 X141.174 Y171.409 E6.39841
G1 X141.023 Y171.624 E6.40715
G1 X139.271 Y173.91 E6.50294
G1 X139.055 Y174.162 E6.51398
G1 X136.526 Y176.835 E6.63637
G1 X136.305 Y177.048 E6.64658
G1 X134.177 Y178.904 E6.74049
G1 X134.011 Y179.039 E6.74761
G1 X132.401 Y180.263 E6.81488
G1 X132.145 Y180.439 E6.82521
G1 X129.053 Y182.348 E6.94607
G1 X128.781 Y182.498 E6.9564
G1 X126.156 Y183.785 E7.05364
G1 X125.958 Y183.874 E7.06086
G1 X124.089 Y184.638 E7.12802
G1 X123.793 Y184.742 E7.13845
G1 X120.303 Y185.784 E7.25959
G1 X120.009 Y185.857 E7.26967
G1 X117.232 Y186.406 E7.36382
G1 X117.015 Y186.441 E7.37113
G1 X114.954 Y186.703 E7.44023
G1 X114.64 Y186.728 E7.45071
G1 X110.961 Y186.831 E7.57312
G1 X110.718 Y186.828 E7.5812
G1 X108.698 Y186.731 E7.64847
G1 X108.385 Y186.701 E7.65892
G1 X104.763 Y186.168 E7.78069
G1 X104.52 Y186.122 E7.78891
G1 X102.522 Y185.668 E7.85706
G1 X102.226 Y185.586 E7.86728
G1 X98.781 Y184.446 E7.98797
G1 X98.547 Y184.358 E7.99629
G1 X96.626 Y183.551 E8.06559
G1 X96.343 Y183.416 E8.07602
G1 X93.108 Y181.667 E8.19833
G1 X92.899 Y181.543 E8.20641
G1 X91.208 Y180.455 E8.27329
G1 X90.954 Y180.274 E8.28367
G1 X88.099 Y178.016 E8.40473
G1 X87.911 Y177.855 E8.41297
G1 X86.388 Y176.446 E8.48197
G1 X86.169 Y176.222 E8.49239
G1 X83.725 Y173.471 E8.61478
G1 X83.569 Y173.282 E8.62294
G1 X82.344 Y171.67 E8.69027
G1 X82.168 Y171.414 E8.70061
G1 X80.267 Y168.332 E8.82105
G1 X80.117 Y168.06 E8.83138
G1 X78.829 Y165.431 E8.92875
G1 X78.741 Y165.235 E8.93589
G1 X77.977 Y163.368 E9.00299
G1 X77.873 Y163.071 E9.01346
G1 X76.828 Y159.569 E9.13501
G1 X76.754 Y159.271 E9.14522
G1 X76.203 Y156.469 E9.2402
G1 X76.168 Y156.255 E9.24741
G1 X75.912 Y154.237 E9.31507
G1 X75.888 Y153.924 E9.32551
G1 X75.784 Y150.246 E9.44789
G1 X75.787 Y149.999 E9.45611
G1 X75.888 Y147.939 E9.5247
G1 X75.918 Y147.628 E9.5351
G1 X76.45 Y144.028 E9.65613
G1 X76.495 Y143.788 E9.66425
G1 X76.946 Y141.801 E9.73202
G1 X76.976 Y141.681 E9.73614
G1 X78.426 Y136.268 E9.92252
G1 X79.007 Y133.654 E10.01159
G1 X79.973 Y128.25 E10.19417
G1 X80.63 Y122.819 E10.37613
G1 X80.98 Y117.34 E10.55873
G1 X81.019 Y111.869 E10.7407
G1 X80.75 Y106.406 E10.92262
G1 X80.17 Y100.963 E11.10468
G1 X79.278 Y95.522 E11.28806
G1 X78.743 Y92.94 E11.37577
G1 X77.379 Y87.54 E11.56101
G1 X76.496 Y84.65 E11.66152
G1 X76.483 Y84.608 E11.66298
G1 X75.476 Y81.144 E11.78296
G1 X75.409 Y80.869 E11.79238
G1 X74.855 Y78.055 E11.88777
G1 X74.82 Y77.838 E11.89508
G1 X74.564 Y75.812 E11.963
G1 X74.54 Y75.503 E11.97331
G1 X74.435 Y71.845 E12.09503
G1 X74.438 Y71.598 E12.10324
G1 X74.537 Y69.559 E12.17114
G1 X74.567 Y69.248 E12.18153
G1 X75.102 Y65.612 E12.30377
G1 X75.148 Y65.369 E12.31199
G1 X75.596 Y63.397 E12.37925
G1 X75.677 Y63.102 E12.38943
G1 X76.809 Y59.675 E12.50947
G1 X76.897 Y59.442 E12.51775
G1 X77.703 Y57.519 E12.5871
G1 X77.838 Y57.237 E12.5975
G1 X79.585 Y53.999 E12.71987
G1 X79.709 Y53.789 E12.72798
G1 X80.799 Y52.092 E12.79506
G1 F2700 E6.29506
G0 F3000 X83.989 Y54.139
;TYPE:WALL-INNER
G1 F2700 E12.79506
G1 F1800 X85.701 Y51.902 E12.88876
G1 X87.59 Y49.84 E12.98177
G1 X89.649 Y47.95 E13.07473
G1 X91.871 Y46.241 E13.16796
G1 X94.23 Y44.735 E13.26105
G1 X96.704 Y43.443 E13.35388
G1 X99.391 Y42.331 E13.4506
G1 X102.06 Y41.495 E13.54362
G1 X104.786 Y40.894 E13.63647
G1 X107.575 Y40.531 E13.73001
G1 X110.374 Y40.414 E13.82319
G1 X113.065 Y40.53 E13.91278
G1 X115.834 Y40.891 E14.00565
G1 X118.68 Y41.521 E14.1026
G1 X121.341 Y42.364 E14.19544
G1 X123.929 Y43.439 E14.28865
G1 X126.408 Y44.734 E14.38167
G1 X128.768 Y46.24 E14.47479
G1 X130.995 Y47.953 E14.56824
G1 X133.044 Y49.833 E14.66073
G1 X134.937 Y51.901 E14.75397
G1 X136.65 Y54.138 E14.84768
G1 X138.149 Y56.494 E14.94056
G1 X139.429 Y58.958 E15.03291
G1 X140.506 Y61.561 E15.12661
G1 X141.345 Y64.219 E15.21931
G1 X141.951 Y66.959 E15.31265
G1 X142.316 Y69.727 E15.40551
G1 X142.438 Y72.532 E15.49889
G1 X142.317 Y75.333 E15.59214
G1 X141.952 Y78.104 E15.6851
G1 X141.35 Y80.826 E15.77782
G1 X140.505 Y83.507 E15.87132
G1 X139.431 Y86.103 E15.96476
G1 X138.15 Y88.569 E16.05718
G1 X136.651 Y90.924 E16.15003
G1 X134.938 Y93.162 E16.24377
G1 X133.05 Y95.223 E16.33673
G1 X130.99 Y97.114 E16.42974
G1 X128.773 Y98.82 E16.52278
G1 X126.41 Y100.328 E16.61602
G1 X123.936 Y101.62 E16.70885
G1 X121.249 Y102.733 E16.80558
G1 X118.58 Y103.569 E16.8986
G1 X115.854 Y104.17 E16.99145
G1 X113.067 Y104.532 E17.08492
G1 X110.265 Y104.65 E17.1782
G1 X107.573 Y104.533 E17.26782
G1 X104.808 Y104.174 E17.36056
G1 X101.96 Y103.543 E17.45758
G1 X99.299 Y102.701 E17.55041
G1 X96.711 Y101.624 E17.64364
G1 X94.23 Y100.329 E17.73673
G1 X91.872 Y98.824 E17.82977
G1 X89.65 Y97.115 E17.923
G1 X87.584 Y95.218 E18.01629
G1 X85.706 Y93.168 E18.10876
G1 X83.99 Y90.925 E18.20269
G1 X82.491 Y88.57 E18.29554
G1 X81.21 Y86.104 E18.38796
G1 X80.136 Y83.508 E18.48141
G1 X79.291 Y80.827 E18.5749
G1 X78.689 Y78.105 E18.66762
G1 X78.324 Y75.334 E18.76058
G1 X78.201 Y72.531 E18.8539
G1 X78.323 Y69.728 E18.94722
G1 X78.688 Y66.96 E19.04008
G1 X79.29 Y64.237 E19.13283
G1 X80.135 Y61.557 E19.22629
G1 X81.21 Y58.959 E19.31981
G1 X82.49 Y56.495 E19.41216
G1 X83.989 Y54.139 E19.50504
G1 F2700 E13.00504
G0 F3000 X88.961 Y58.419
G1 F2700 E19.50504
G1 F1800 X87.65 Y60.639 E19.59079
G1 X86.568 Y62.98 E19.67657
G1 X85.728 Y65.417 E19.7623
G1 X85.137 Y67.927 E19.84807
G1 X84.746 Y70.907 E19.94803
G1 X84.717 Y71.132 E19.95558
G1 X84.943 Y71.132 E19.96027
G1 X84.944 Y71.132 E19.9603
G1 X99.966 Y71.132 E20.45993
G1 X100.494 Y69.13 E20.5288
G1 X101.119 Y67.687 E20.5811
G1 X101.945 Y66.369 E20.63283
G1 X102.968 Y65.18 E20.685
G1 X104.158 Y64.157 E20.7372
G1 X105.476 Y63.331 E20.78893
G1 X106.92 Y62.706 E20.84126
G1 X108.92 Y62.177 E20.91007
G1 X108.92 Y47.155 E21.40971
G1 X108.92 Y47.154 E21.40974
G1 X108.92 Y46.928 E21.41726
G1 X108.695 Y46.957 E21.42196
G1 X105.716 Y47.349 E21.5219
G1 X103.206 Y47.94 E21.60767
G1 X100.769 Y48.779 E21.69339
G1 X98.428 Y49.861 E21.77917
G1 X96.208 Y51.173 E21.86493
G1 X94.131 Y52.701 E21.9507
G1 X92.218 Y54.429 E22.03644
G1 X90.489 Y56.342 E22.1222
G1 X88.961 Y58.419 E22.20796
G1 F2700 E15.70796
G0 F3000 X84.717 Y73.932
G1 F2700 E22.20796
G1 F1800 X84.746 Y74.157 E22.21551
G1 X85.137 Y77.136 E22.31544
G1 X85.728 Y79.646 E22.40121
G1 X86.568 Y82.084 E22.48697
G1 X87.65 Y84.425 E22.57275
G1 X88.961 Y86.645 E22.6585
G1 X90.489 Y88.722 E22.74426
G1 X92.218 Y90.635 E22.83002
G1 X94.131 Y92.363 E22.91577
G1 X96.208 Y93.891 E23.00153
G1 X98.428 Y95.203 E23.0873
G1 X100.769 Y96.285 E23.17307
G1 X103.206 Y97.124 E23.2588
G1 X105.716 Y97.715 E23.34456
G1 X108.695 Y98.107 E23.4445
G1 X108.92 Y98.136 E23.45204
G1 X108.92 Y97.91 E23.45673
G1 X108.92 Y97.909 E23.45677
G1 X108.92 Y82.887 E23.9564
G1 X106.92 Y82.358 E24.02521
G1 X105.476 Y81.733 E24.07754
G1 X104.158 Y80.907 E24.12928
G1 X102.968 Y79.884 E24.18147
G1 X101.945 Y78.695 E24.23364
G1 X101.119 Y77.377 E24.28537
G1 X100.494 Y75.934 E24.33768
G1 X99.966 Y73.932 E24.40654
G1 X84.944 Y73.932 E24.90617
G1 X84.943 Y73.932 E24.90621
G1 X84.717 Y73.932 E24.9109
G1 F2700 E18.4109
G0 F3000 X101.232 Y72.796
G1 F2700 E24.9109
G1 F1800 X101.364 Y73.307 E24.92845
G1 X101.618 Y73.769 E24.94599
G1 X101.979 Y74.154 E24.96354
G1 X102.424 Y74.436 E24.98106
G1 X102.925 Y74.599 E24.99858
G1 X103.453 Y74.632 E25.01618
G1 X103.971 Y74.533 E25.03372
G1 X104.448 Y74.308 E25.05126
G1 X104.855 Y73.973 E25.0688
G1 X105.166 Y73.546 E25.08636
G1 X105.358 Y73.055 E25.1039
G1 X105.425 Y72.532 E25.12144
G1 X105.358 Y72.009 E25.13897
G1 X105.166 Y71.518 E25.15651
G1 X104.855 Y71.091 E25.17408
G1 X104.448 Y70.755 E25.19163
G1 X103.97 Y70.529 E25.20922
G1 X103.453 Y70.432 E25.22671
G1 X102.925 Y70.464 E25.24431
G1 X102.424 Y70.628 E25.26184
G1 X101.979 Y70.91 E25.27936
G1 X101.618 Y71.295 E25.29692
G1 X101.364 Y71.757 E25.31445
G1 X101.232 Y72.268 E25.33201
G1 X101.232 Y72.796 E25.34957
G1 F2700 E18.84957
G0 F3000 X107.736 Y72.859
G1 F2700 E25.34957
G1 F1800 X107.899 Y73.491 E25.37128
G1 X108.213 Y74.062 E25.39295
G1 X108.66 Y74.539 E25.41469
G1 X109.211 Y74.889 E25.4364
G1 X109.833 Y75.09 E25.45814
G1 X110.483 Y75.131 E25.47981
G1 X111.123 Y75.009 E25.50148
G1 X111.715 Y74.731 E25.52323
G1 X112.218 Y74.315 E25.54494
G1 X112.602 Y73.786 E25.56668
G1 X112.843 Y73.179 E25.5884
G1 X112.924 Y72.532 E25.61009
G1 X112.843 Y71.885 E25.63178
G1 X112.602 Y71.277 E25.65353
G1 X112.218 Y70.749 E25.67524
G1 X111.715 Y70.333 E25.69695
G1 X111.123 Y70.055 E25.71871
G1 X110.483 Y69.933 E25.74038
G1 X109.833 Y69.973 E25.76204
G1 X109.211 Y70.175 E25.78379
G1 X108.661 Y70.525 E25.80547
G1 X108.213 Y71 E25.82719
G1 X107.899 Y71.574 E25.84895
G1 X107.736 Y72.205 E25.87063
G1 X107.736 Y72.859 E25.89238
G1 F2700 E19.39238
G0 F3000 X109.424 Y67.436
G1 F2700 E25.89238
G1 F1800 X109.924 Y67.599 E25.90987
G1 X110.452 Y67.632 E25.92747
G1 X110.97 Y67.533 E25.94501
G1 X111.447 Y67.308 E25.96255
G1 X111.854 Y66.973 E25.98008
G1 X112.165 Y66.546 E25.99765
G1 X112.357 Y66.055 E26.01518
G1 X112.424 Y65.532 E26.03272
G1 X112.357 Y65.009 E26.05026
G1 X112.165 Y64.518 E26.06779
G1 X111.854 Y64.091 E26.08536
G1 X111.447 Y63.755 E26.10292
G1 X110.969 Y63.529 E26.1205
G1 X110.452 Y63.432 E26.138
G1 X109.924 Y63.464 E26.15559
G1 X109.424 Y63.629 E26.1731
G1 X108.979 Y63.91 E26.19061
G1 X108.618 Y64.295 E26.20816
G1 X108.364 Y64.757 E26.2257
G1 X108.232 Y65.268 E26.24325
G1 X108.232 Y65.796 E26.26081
G1 X108.364 Y66.307 E26.27837
G1 X108.618 Y66.769 E26.2959
G1 X108.979 Y67.154 E26.31346
G1 X109.424 Y67.436 E26.33098
G1 F2700 E19.83098
G0 F3000 X115.617 Y71.295
G1 F2700 E26.33098
G1 F1800 X115.363 Y71.757 E26.34851
G1 X115.231 Y72.268 E26.36607
G1 X115.231 Y72.796 E26.38363
G1 X115.363 Y73.307 E26.40118
G1 X115.617 Y73.769 E26.41872
G1 X115.978 Y74.154 E26.43627
G1 X116.423 Y74.436 E26.4538
G1 X116.924 Y74.599 E26.47132
G1 X117.452 Y74.632 E26.48891
G1 X117.97 Y74.533 E26.50645
G1 X118.447 Y74.308 E26.524
G1 X118.854 Y73.973 E26.54153
G1 X119.165 Y73.546 E26.5591
G1 X119.357 Y73.055 E26.57663
G1 X119.424 Y72.532 E26.59417
G1 X119.357 Y72.009 E26.61171
G1 X119.165 Y71.518 E26.62924
G1 X118.854 Y71.091 E26.64681
G1 X118.447 Y70.755 E26.66437
G1 X117.969 Y70.529 E26.68195
G1 X117.452 Y70.432 E26.69945
G1 X116.924 Y70.464 E26.71704
G1 X116.423 Y70.628 E26.73457
G1 X115.978 Y70.91 E26.7521
G1 X115.617 Y71.295 E26.76965
G1 F2700 E20.26965
G0 F3000 X111.447 Y77.755
G1 F2700 E26.76965
G1 F1800 X110.969 Y77.529 E26.78724
G1 X110.452 Y77.432 E26.80473
G1 X109.924 Y77.464 E26.82233
G1 X109.424 Y77.629 E26.83984
G1 X108.979 Y77.91 E26.85734
G1 X108.618 Y78.295 E26.8749
G1 X108.364 Y78.757 E26.89243
G1 X108.232 Y79.268 E26.90999
G1 X108.232 Y79.796 E26.92755
G1 X108.364 Y80.307 E26.9451
G1 X108.618 Y80.769 E26.96264
G1 X108.979 Y81.154 E26.98019
G1 X109.424 Y81.436 E26.99771
G1 X109.924 Y81.599 E27.0152
G1 X110.452 Y81.632 E27.0328
G1 X110.97 Y81.533 E27.05034
G1 X111.447 Y81.308 E27.06788
G1 X111.854 Y80.973 E27.08541
G1 X112.165 Y80.546 E27.10298
G1 X112.357 Y80.055 E27.12052
G1 X112.424 Y79.532 E27.13806
G1 X112.357 Y79.009 E27.15559
G1 X112.165 Y78.518 E27.17313
G1 X111.854 Y78.091 E27.1907
G1 X111.447 Y77.755 E27.20825
G1 F2700 E20.70825
G0 F3000 X111.719 Y82.887
G1 F2700 E27.20825
G1 F1800 X111.719 Y97.909 E27.70789
G1 X111.719 Y97.91 E27.70792
G1 X111.719 Y98.136 E27.71544
G1 X111.944 Y98.107 E27.72014
G1 X114.924 Y97.715 E27.82011
G1 X117.434 Y97.124 E27.90588
G1 X119.871 Y96.285 E27.9916
G1 X122.212 Y95.203 E28.07738
G1 X124.432 Y93.891 E28.16315
G1 X126.509 Y92.363 E28.24891
G1 X128.422 Y90.635 E28.33465
G1 X130.151 Y88.722 E28.42041
G1 X131.679 Y86.645 E28.50617
G1 X132.99 Y84.425 E28.59193
G1 X134.072 Y82.084 E28.6777
G1 X134.912 Y79.646 E28.76347
G1 X135.503 Y77.136 E28.84923
G1 X135.894 Y74.157 E28.94917
G1 X135.923 Y73.932 E28.95671
G1 X135.697 Y73.932 E28.9614
G1 X135.696 Y73.932 E28.96143
G1 X120.674 Y73.932 E29.46107
G1 X120.145 Y75.934 E29.52994
G1 X119.523 Y77.372 E29.58205
G1 X118.691 Y78.7 E29.63417
G1 X117.672 Y79.884 E29.68613
G1 X116.482 Y80.907 E29.73832
G1 X115.164 Y81.733 E29.79006
G1 X113.721 Y82.358 E29.84236
G1 X111.719 Y82.887 E29.91123
G1 F2700 E23.41123
G0 F3000 X120.674 Y71.132
G1 F2700 E29.91123
G1 F1800 X135.696 Y71.132 E30.41087
G1 X135.697 Y71.132 E30.4109
G1 X135.923 Y71.132 E30.41842
G1 X135.894 Y70.907 E30.42312
G1 X135.503 Y67.927 E30.52309
G1 X134.912 Y65.417 E30.60885
G1 X134.072 Y62.98 E30.69459
G1 X132.99 Y60.639 E30.78037
G1 X131.679 Y58.419 E30.86612
G1 X130.151 Y56.342 E30.95188
G1 X128.422 Y54.429 E31.03764
G1 X126.509 Y52.701 E31.12338
G1 X124.432 Y51.173 E31.20914
G1 X122.212 Y49.861 E31.29491
G1 X119.871 Y48.779 E31.38069
G1 X117.434 Y47.94 E31.46641
G1 X114.924 Y47.349 E31.55218
G1 X111.944 Y46.957 E31.65215
G1 X111.719 Y46.928 E31.65969
G1 X111.719 Y47.154 E31.66438
G1 X111.719 Y47.155 E31.66442
G1 X111.719 Y62.177 E32.16405
G1 X113.721 Y62.706 E32.23292
G1 X115.164 Y63.331 E32.28523
G1 X116.482 Y64.157 E32.33696
G1 X117.672 Y65.18 E32.38915
G1 X118.691 Y66.364 E32.44111
G1 X119.523 Y67.692 E32.49323
